build-source/logos/mezzolivehd.default.svg

<svg xmlns="http://www.w3.org/2000/svg" viewBox="0 0 600 244.8"><defs><clipPath id="0"><path d="m326.24 129.68h25.636v10.16h-25.636v-10.16"/></clipPath><clipPath id="1"><path d="m327.09 130.06h23.11v9.431h-23.11v-9.431"/></clipPath></defs><g transform="translate(-50-409.96)"><g clip-path="url(#1)" transform="matrix(25.95826 0 0-25.95826-8440.61 4031.01)"><path d="m0 0c0 .114.04.212.121.292.08.081.178.121.292.121.114 0 .211-.04.292-.121.08-.08.121-.178.121-.292 0-.114-.041-.212-.121-.292-.081-.081-.178-.121-.292-.121-.114 0-.212.04-.292.121-.081.08-.121.178-.121.292" fill="#4a3a3e" transform="translate(335.39 134.34)"/><path d="m0 0c.013.088.02.171.02.246v.238c0 .214-.021.391-.062.531-.041.138-.099.249-.171.331-.073.082-.161.141-.265.175-.105.035-.217.053-.337.053-.215 0-.392-.043-.531-.128-.139-.086-.25-.201-.332-.346-.082-.146-.144-.313-.184-.503-.042-.189-.068-.388-.081-.597h1.943m-1.952-.133c0-.063-.002-.128-.005-.194-.004-.066-.005-.15-.005-.251 0-.209.013-.427.038-.654.025-.228.081-.433.166-.617.085-.183.211-.335.379-.455.167-.12.39-.179.668-.179.279 0 .508.04.687.122.181.083.323.182.427.299.104.117.182.235.233.356.05.12.088.218.114.293l.141-.028c-.018-.07-.055-.169-.109-.299-.053-.129-.138-.259-.256-.388-.117-.13-.274-.244-.474-.342-.199-.097-.456-.146-.772-.146-.316 0-.608.05-.877.151-.269.101-.501.247-.697.436-.196.19-.347.416-.455.678-.107.262-.161.555-.161.877 0 .278.055.548.166.81.11.263.262.495.455.697.192.202.418.365.678.488.259.124.537.185.834.185.177 0 .366-.031.569-.094.202-.064.39-.166.564-.308.174-.143.319-.331.436-.564.117-.235.175-.525.175-.873h-2.919" fill="#ef3424" transform="translate(337.53 137.79)"/></g><g clip-path="url(#0)" transform="matrix(25.95826 0 0-25.95826-8440.61 4031.01)"><path d="m0 0h3l-2.361-3.934h1.337c.183 0 .333.036.45.109.117.072.212.164.285.274.072.111.129.229.171.356.041.126.08.247.118.36h.076l-.123-1.232h-3.3l2.361 3.934h-.815c-.158 0-.296-.004-.413-.014-.117-.009-.223-.043-.317-.1-.095-.057-.184-.148-.265-.274-.083-.127-.171-.307-.266-.541h-.076l.133 1.062" fill="#ef3424" transform="translate(338.98 139.37)"/></g><g clip-path="url(#1)" transform="matrix(25.95826 0 0-25.95826-8440.61 4031.01)" fill="#ef3424"><path d="m0 0h3l-2.36-3.934h1.336c.183 0 .334.036.451.109.117.072.211.164.284.274.073.111.13.229.171.356.041.126.08.247.118.36h.076l-.123-1.232h-3.299l2.36 3.934h-.815c-.158 0-.296-.004-.412-.014-.117-.009-.223-.043-.318-.1-.095-.057-.184-.148-.265-.274-.083-.127-.171-.307-.266-.541h-.076l.133 1.062" transform="translate(342.57 139.37)"/><path d="m0 0c0-.449.035-.806.104-1.071.07-.266.162-.469.275-.612.114-.142.247-.235.398-.279.152-.044.313-.066.484-.066.17 0 .332.022.484.066.151.044.284.137.398.279.114.143.205.346.275.612.069.265.104.622.104 1.071 0 .379-.025.697-.076.953-.051.256-.128.464-.232.625-.105.162-.236.277-.394.347-.158.069-.344.104-.559.104-.215 0-.401-.035-.559-.104-.159-.07-.289-.185-.394-.347-.104-.161-.181-.369-.232-.625-.051-.256-.076-.574-.076-.953m-.948 0c0 .31.068.597.204.863.136.265.31.494.521.687.212.193.449.343.711.45.263.108.52.162.773.162.253 0 .51-.054.773-.162.262-.107.499-.257.711-.45.211-.193.385-.422.521-.687.136-.266.204-.553.204-.863 0-.297-.064-.577-.19-.839-.126-.262-.292-.491-.498-.687-.205-.196-.44-.351-.706-.465-.265-.113-.537-.17-.815-.17-.278 0-.55.057-.815.17-.266.114-.501.269-.706.465-.206.196-.372.425-.498.687-.127.262-.19.542-.19.839" transform="translate(346.73 137.33)"/><path d="m0 0c0 .329.046.607.138.834.091.228.205.413.341.555.136.142.283.246.441.313.158.066.303.099.436.099.189 0 .341-.066.455-.199.114-.133.171-.338.171-.616v-3.143c-.819-.235-1.49-.116-1.982.088v2.069m2.797.313c0 .253.039.474.118.663.079.19.182.345.308.465.126.12.269.21.427.27.158.06.316.09.474.09.202 0 .362-.06.478-.18.117-.12.176-.288.176-.502v-2.468c-.601.011-1.274-.121-1.981-.474v2.136m-3.612-1.885c.389-.383 1.669-1.399 3.548-.43 1.04.537 2.06.477 2.86.253v2.27c0 .942-.461 1.413-1.384 1.413-.196 0-.371-.025-.526-.076-.155-.051-.289-.119-.403-.204-.113-.085-.208-.181-.284-.289-.076-.107-.136-.218-.18-.332h-.019c-.076.323-.236.553-.479.693-.244.138-.523.208-.839.208-.354 0-.656-.088-.905-.265-.25-.177-.441-.456-.574-.835h-.019v.996h-1.526v-.133h.73v-3.269" transform="translate(328.63 137.54)"/></g><g clip-path="url(#0)" transform="matrix(25.95826 0 0-25.95826-8440.61 4031.01)"><g fill="#ef3424"><path d="m0 0v-1.582h1.348v1.582h.679v-3.328h-.679v1.647h-1.348v-1.647h-.675v3.328h.675" transform="translate(344.3 133.5)"/><path d="m0 0c.202 0 .375.024.518.072.143.049.264.114.361.197.098.082.176.176.233.283.058.105.102.217.131.334.03.117.05.233.059.35.009.117.014.227.014.33 0 .252-.016.48-.047.684-.031.205-.093.379-.184.524-.092.145-.221.256-.387.334-.167.078-.385.117-.656.117-.062 0-.118 0-.168-.002-.05-.002-.09-.006-.122-.012v-3.197c.091-.009.173-.014.248-.014m-.924 3.277c.159 0 .317.002.476.006.159.005.317.007.476.007.14 0 .288-.009.443-.028.156-.018.31-.052.462-.1.152-.048.297-.113.434-.194.137-.081.258-.184.364-.308.106-.125.19-.273.252-.445.062-.171.093-.372.093-.603 0-.227-.031-.427-.093-.598-.062-.171-.146-.319-.25-.444-.104-.125-.223-.228-.357-.308-.134-.082-.273-.146-.417-.194-.145-.049-.288-.082-.43-.101-.141-.019-.272-.028-.394-.028-.177 0-.354.002-.53.005-.175.003-.352.004-.529.004v3.329" transform="translate(348.01 130.23)"/></g><g fill="#4a3a3e"><path d="m0 0h.596v3.108h-.522v.109h1.187v-3.217h.522v-.108h-1.783v.108" transform="translate(334.88 130.28)"/><path d="m0 0c.0001.072.015.139.015.202v.193c0 .176-.016.321-.05.434-.033.114-.08.204-.139.272-.059.067-.132.115-.217.143-.085.028-.177.043-.274.043-.176 0-.32-.035-.434-.105-.113-.07-.204-.164-.271-.283-.067-.119-.117-.256-.15-.411-.034-.155-.056-.318-.066-.488h1.586m-1.594-.108c0-.052 0-.105-.004-.159-.002-.055-.004-.123-.004-.206 0-.17.011-.349.031-.535.021-.186.066-.354.136-.503.069-.15.172-.274.309-.372.137-.099.319-.148.546-.148.227 0 .414.034.561.101.147.067.263.148.348.244.085.096.148.193.189.291.042.098.072.178.093.24l.116-.023c-.015-.057-.045-.138-.089-.244-.044-.106-.113-.212-.209-.318-.095-.106-.224-.199-.386-.279-.163-.08-.373-.12-.631-.12-.258 0-.497.041-.716.124-.219.082-.409.201-.568.356-.16.155-.284.34-.372.554-.088.215-.131.454-.131.717 0 .228.045.449.135.663.09.214.214.404.371.57.158.165.342.298.554.399.211.101.438.151.681.151.144 0 .299-.026.464-.077.165-.052.318-.136.46-.252.142-.117.261-.27.356-.461.095-.192.143-.429.143-.713h-2.383" transform="translate(342.2 132.2)"/><path d="m0 0v-.109h.45l-1.037-2.433-.998 2.433h.524v.109h-1.577v-.109h.378l1.308-3.224h.205l1.358 3.224h.27v.109h-.881" transform="translate(339.19 133.5)"/><path d="m0 0c-.208.067-.44.099-.665.112v-4.816h-.522v-.108h1.857v.108h-.67v4.704" transform="translate(334.22 134.98)"/></g></g></g></svg>

<?xml version="1.0" encoding="UTF-8" standalone="no"?>
<!-- Created with Inkscape (http://www.inkscape.org/) -->

<svg
   xmlns:dc="http://purl.org/dc/elements/1.1/"
   xmlns:cc="http://creativecommons.org/ns#"
   xmlns:rdf="http://www.w3.org/1999/02/22-rdf-syntax-ns#"
   xmlns:svg="http://www.w3.org/2000/svg"
   xmlns="http://www.w3.org/2000/svg"
   version="1.1"
   width="599.99933"
   height="244.802"
   id="svg125679">
  <defs
     id="defs125681">
    <clipPath
       id="clipPath105869">
      <path
         d="m 326.244,129.679 25.636,0 0,10.16 -25.636,0 0,-10.16 z"
         id="path105871" />
    </clipPath>
    <clipPath
       id="clipPath105849">
      <path
         d="m 327.087,130.064 23.114,0 0,9.431 -23.114,0 0,-9.431 z"
         id="path105851" />
    </clipPath>
    <clipPath
       id="clipPath105837">
      <path
         d="m 326.244,129.679 25.636,0 0,10.16 -25.636,0 0,-10.16 z"
         id="path105839" />
    </clipPath>
    <clipPath
       id="clipPath105821">
      <path
         d="m 327.087,130.064 23.114,0 0,9.431 -23.114,0 0,-9.431 z"
         id="path105823" />
    </clipPath>
  </defs>
  <metadata
     id="metadata125684">
    <rdf:RDF>
      <cc:Work
         rdf:about="">
        <dc:format>image/svg+xml</dc:format>
        <dc:type
           rdf:resource="http://purl.org/dc/dcmitype/StillImage" />
        <dc:title></dc:title>
      </cc:Work>
    </rdf:RDF>
  </metadata>
  <g
     transform="translate(-50.000497,-409.96116)"
     id="layer1">
    <g
       id="g125772">
      <g
         transform="matrix(25.958264,0,0,-25.958264,-8440.6102,4031.0092)"
         id="g105817">
        <g
           clip-path="url(#clipPath105821)"
           id="g105819">
          <g
             transform="translate(335.3855,134.33611)"
             id="g105825">
            <path
               d="m 0,0 c 0,0.114 0.04,0.212 0.121,0.292 0.08,0.081 0.178,0.121 0.292,0.121 0.114,0 0.211,-0.04 0.292,-0.121 C 0.785,0.212 0.826,0.114 0.826,0 0.826,-0.114 0.785,-0.212 0.705,-0.292 0.624,-0.373 0.527,-0.413 0.413,-0.413 c -0.114,0 -0.212,0.04 -0.292,0.121 C 0.04,-0.212 0,-0.114 0,0"
               id="path105827"
               style="fill:#4a3a3e;fill-opacity:1;fill-rule:nonzero;stroke:none" />
          </g>
          <g
             transform="translate(337.53419,137.7896)"
             id="g105829">
            <path
               d="m 0,0 c 0.013,0.088 0.02,0.171 0.02,0.246 l 0,0.238 c 0,0.214 -0.021,0.391 -0.062,0.531 -0.041,0.138 -0.099,0.249 -0.171,0.331 -0.073,0.082 -0.161,0.141 -0.265,0.175 -0.105,0.035 -0.217,0.053 -0.337,0.053 -0.215,0 -0.392,-0.043 -0.531,-0.128 C -1.485,1.36 -1.596,1.245 -1.678,1.1 -1.76,0.954 -1.822,0.787 -1.862,0.597 -1.904,0.408 -1.93,0.209 -1.943,0 L 0,0 z m -1.952,-0.133 c 0,-0.063 -0.002,-0.128 -0.005,-0.194 -0.004,-0.066 -0.005,-0.15 -0.005,-0.251 0,-0.209 0.013,-0.427 0.038,-0.654 0.025,-0.228 0.081,-0.433 0.166,-0.617 0.085,-0.183 0.211,-0.335 0.379,-0.455 0.167,-0.12 0.39,-0.179 0.668,-0.179 0.279,0 0.508,0.04 0.687,0.122 0.181,0.083 0.323,0.182 0.427,0.299 0.104,0.117 0.182,0.235 0.233,0.356 0.05,0.12 0.088,0.218 0.114,0.293 L 0.891,-1.441 C 0.873,-1.511 0.836,-1.61 0.782,-1.74 0.729,-1.869 0.644,-1.999 0.526,-2.128 0.409,-2.258 0.252,-2.372 0.052,-2.47 -0.147,-2.567 -0.404,-2.616 -0.72,-2.616 c -0.316,0 -0.608,0.05 -0.877,0.151 -0.269,0.101 -0.501,0.247 -0.697,0.436 -0.196,0.19 -0.347,0.416 -0.455,0.678 -0.107,0.262 -0.161,0.555 -0.161,0.877 0,0.278 0.055,0.548 0.166,0.81 0.11,0.263 0.262,0.495 0.455,0.697 0.192,0.202 0.418,0.365 0.678,0.488 0.259,0.124 0.537,0.185 0.834,0.185 0.177,0 0.366,-0.031 0.569,-0.094 C -0.006,1.548 0.182,1.446 0.356,1.304 0.53,1.161 0.675,0.973 0.792,0.74 0.909,0.505 0.967,0.215 0.967,-0.133 l -2.919,0"
               id="path105831"
               style="fill:#ef3424;fill-opacity:1;fill-rule:nonzero;stroke:none" />
          </g>
        </g>
      </g>
      <g
         transform="matrix(25.958264,0,0,-25.958264,-8440.6102,4031.0092)"
         id="g105833">
        <g
           clip-path="url(#clipPath105837)"
           id="g105835">
          <g
             transform="translate(338.981,139.37289)"
             id="g105841">
            <path
               d="m 0,0 3.005,0 -2.361,-3.934 1.337,0 c 0.183,0 0.333,0.036 0.45,0.109 0.117,0.072 0.212,0.164 0.285,0.274 0.072,0.111 0.129,0.229 0.171,0.356 0.041,0.126 0.08,0.247 0.118,0.36 l 0.076,0 -0.123,-1.232 -3.3,0 2.361,3.934 -0.815,0 C 1.046,-0.133 0.908,-0.137 0.791,-0.147 0.674,-0.156 0.568,-0.19 0.474,-0.247 0.379,-0.304 0.29,-0.395 0.209,-0.521 0.126,-0.648 0.038,-0.828 -0.057,-1.062 l -0.076,0 L 0,0"
               id="path105843"
               style="fill:#ef3424;fill-opacity:1;fill-rule:nonzero;stroke:none" />
          </g>
        </g>
      </g>
      <g
         transform="matrix(25.958264,0,0,-25.958264,-8440.6102,4031.0092)"
         id="g105845">
        <g
           clip-path="url(#clipPath105849)"
           id="g105847">
          <g
             transform="translate(342.56911,139.37289)"
             id="g105853">
            <path
               d="m 0,0 3.005,0 -2.36,-3.934 1.336,0 c 0.183,0 0.334,0.036 0.451,0.109 0.117,0.072 0.211,0.164 0.284,0.274 0.073,0.111 0.13,0.229 0.171,0.356 0.041,0.126 0.08,0.247 0.118,0.36 l 0.076,0 -0.123,-1.232 -3.299,0 2.36,3.934 -0.815,0 C 1.046,-0.133 0.908,-0.137 0.792,-0.147 0.675,-0.156 0.569,-0.19 0.474,-0.247 0.379,-0.304 0.29,-0.395 0.209,-0.521 0.126,-0.648 0.038,-0.828 -0.057,-1.062 l -0.076,0 L 0,0"
               id="path105855"
               style="fill:#ef3424;fill-opacity:1;fill-rule:nonzero;stroke:none" />
          </g>
          <g
             transform="translate(346.731,137.3345)"
             id="g105857">
            <path
               d="m 0,0 c 0,-0.449 0.035,-0.806 0.104,-1.071 0.07,-0.266 0.162,-0.469 0.275,-0.612 0.114,-0.142 0.247,-0.235 0.398,-0.279 0.152,-0.044 0.313,-0.066 0.484,-0.066 0.17,0 0.332,0.022 0.484,0.066 0.151,0.044 0.284,0.137 0.398,0.279 0.114,0.143 0.205,0.346 0.275,0.612 C 2.487,-0.806 2.522,-0.449 2.522,0 2.522,0.379 2.497,0.697 2.446,0.953 2.395,1.209 2.318,1.417 2.214,1.578 2.109,1.74 1.978,1.855 1.82,1.925 1.662,1.994 1.476,2.029 1.261,2.029 1.046,2.029 0.86,1.994 0.702,1.925 0.543,1.855 0.413,1.74 0.308,1.578 0.204,1.417 0.127,1.209 0.076,0.953 0.025,0.697 0,0.379 0,0 m -0.948,0 c 0,0.31 0.068,0.597 0.204,0.863 0.136,0.265 0.31,0.494 0.521,0.687 C -0.011,1.743 0.226,1.893 0.488,2 0.751,2.108 1.008,2.162 1.261,2.162 1.514,2.162 1.771,2.108 2.034,2 2.296,1.893 2.533,1.743 2.745,1.55 2.956,1.357 3.13,1.128 3.266,0.863 3.402,0.597 3.47,0.31 3.47,0 3.47,-0.297 3.406,-0.577 3.28,-0.839 3.154,-1.101 2.988,-1.33 2.782,-1.526 2.577,-1.722 2.342,-1.877 2.076,-1.991 1.811,-2.104 1.539,-2.161 1.261,-2.161 c -0.278,0 -0.55,0.057 -0.815,0.17 -0.266,0.114 -0.501,0.269 -0.706,0.465 -0.206,0.196 -0.372,0.425 -0.498,0.687 -0.127,0.262 -0.19,0.542 -0.19,0.839"
               id="path105859"
               style="fill:#ef3424;fill-opacity:1;fill-rule:nonzero;stroke:none" />
          </g>
          <g
             transform="translate(328.6319,137.54311)"
             id="g105861">
            <path
               d="M 0,0 C 0,0.329 0.046,0.607 0.138,0.834 0.229,1.062 0.343,1.247 0.479,1.389 0.615,1.531 0.762,1.635 0.92,1.702 1.078,1.768 1.223,1.801 1.356,1.801 1.545,1.801 1.697,1.735 1.811,1.602 1.925,1.469 1.982,1.264 1.982,0.986 l 0,-3.143 C 1.163,-2.392 0.492,-2.273 0,-2.069 L 0,0 z m 2.797,0.313 c 0,0.253 0.039,0.474 0.118,0.663 0.079,0.19 0.182,0.345 0.308,0.465 0.126,0.12 0.269,0.21 0.427,0.27 0.158,0.06 0.316,0.09 0.474,0.09 0.202,0 0.362,-0.06 0.478,-0.18 0.117,-0.12 0.176,-0.288 0.176,-0.502 l 0,-2.468 C 4.177,-1.338 3.504,-1.47 2.797,-1.823 l 0,2.136 z m -3.612,-1.885 c 0.389,-0.383 1.669,-1.399 3.548,-0.43 1.04,0.537 2.06,0.477 2.86,0.253 l 0,2.27 C 5.593,1.463 5.132,1.934 4.209,1.934 4.013,1.934 3.838,1.909 3.683,1.858 3.528,1.807 3.394,1.739 3.28,1.654 3.167,1.569 3.072,1.473 2.996,1.365 2.92,1.258 2.86,1.147 2.816,1.033 l -0.019,0 C 2.721,1.356 2.561,1.586 2.318,1.726 2.074,1.864 1.795,1.934 1.479,1.934 1.125,1.934 0.823,1.846 0.574,1.669 0.324,1.492 0.133,1.213 0,0.834 l -0.019,0 0,0.996 -1.526,0 0,-0.133 0.73,0 0,-3.269"
               id="path105863"
               style="fill:#ef3424;fill-opacity:1;fill-rule:nonzero;stroke:none" />
          </g>
        </g>
      </g>
      <g
         transform="matrix(25.958264,0,0,-25.958264,-8440.6102,4031.0092)"
         id="g105865">
        <g
           clip-path="url(#clipPath105869)"
           id="g105867">
          <g
             transform="translate(344.29559,133.5016)"
             id="g105873">
            <path
               d="m 0,0 0,-1.582 1.348,0 0,1.582 0.679,0 0,-3.328 -0.679,0 0,1.647 -1.348,0 0,-1.647 -0.675,0 0,3.328 L 0,0 z"
               id="path105875"
               style="fill:#ef3424;fill-opacity:1;fill-rule:nonzero;stroke:none" />
          </g>
          <g
             transform="translate(348.00571,130.22501)"
             id="g105877">
            <path
               d="m 0,0 c 0.202,0 0.375,0.024 0.518,0.072 0.143,0.049 0.264,0.114 0.361,0.197 0.098,0.082 0.176,0.176 0.233,0.283 0.058,0.105 0.102,0.217 0.131,0.334 0.03,0.117 0.05,0.233 0.059,0.35 0.009,0.117 0.014,0.227 0.014,0.33 C 1.316,1.818 1.3,2.046 1.269,2.25 1.238,2.455 1.176,2.629 1.085,2.774 0.993,2.919 0.864,3.03 0.698,3.108 0.531,3.186 0.313,3.225 0.042,3.225 -0.02,3.225 -0.076,3.224 -0.126,3.223 -0.176,3.221 -0.216,3.217 -0.248,3.211 l 0,-3.197 C -0.157,0.005 -0.075,0 0,0 m -0.924,3.277 c 0.159,0 0.317,0.002 0.476,0.006 0.159,0.005 0.317,0.007 0.476,0.007 0.14,0 0.288,-0.009 0.443,-0.028 C 0.627,3.244 0.781,3.21 0.933,3.162 1.085,3.114 1.23,3.049 1.367,2.968 1.504,2.887 1.625,2.784 1.731,2.66 1.837,2.535 1.921,2.387 1.983,2.215 2.045,2.044 2.076,1.843 2.076,1.612 2.076,1.385 2.045,1.185 1.983,1.014 1.921,0.843 1.837,0.695 1.733,0.57 1.629,0.445 1.51,0.342 1.376,0.262 1.242,0.18 1.103,0.116 0.959,0.068 0.814,0.019 0.671,-0.014 0.529,-0.033 0.388,-0.052 0.257,-0.061 0.135,-0.061 c -0.177,0 -0.354,0.002 -0.53,0.005 -0.175,0.003 -0.352,0.004 -0.529,0.004 l 0,3.329"
               id="path105879"
               style="fill:#ef3424;fill-opacity:1;fill-rule:nonzero;stroke:none" />
          </g>
          <g
             transform="translate(334.8775,130.2811)"
             id="g105881">
            <path
               d="m 0,0 0.596,0 0,3.108 -0.522,0 0,0.109 1.187,0 0,-3.217 0.522,0 0,-0.108 L 0,-0.108 0,0 z"
               id="path105883"
               style="fill:#4a3a3e;fill-opacity:1;fill-rule:nonzero;stroke:none" />
          </g>
          <g
             transform="translate(342.1998,132.2034)"
             id="g105885">
            <path
               d="m 0,0 c 0.01,0.072 0.015,0.139 0.015,0.202 l 0,0.193 c 0,0.176 -0.016,0.321 -0.05,0.434 -0.033,0.114 -0.08,0.204 -0.139,0.272 -0.059,0.067 -0.132,0.115 -0.217,0.143 -0.085,0.028 -0.177,0.043 -0.274,0.043 -0.176,0 -0.32,-0.035 -0.434,-0.105 C -1.212,1.112 -1.303,1.018 -1.37,0.899 -1.437,0.78 -1.487,0.643 -1.52,0.488 -1.554,0.333 -1.576,0.17 -1.586,0 L 0,0 z m -1.594,-0.108 c 0,-0.052 -10e-4,-0.105 -0.004,-0.159 -0.002,-0.055 -0.004,-0.123 -0.004,-0.206 0,-0.17 0.011,-0.349 0.031,-0.535 0.021,-0.186 0.066,-0.354 0.136,-0.503 0.069,-0.15 0.172,-0.274 0.309,-0.372 0.137,-0.099 0.319,-0.148 0.546,-0.148 0.227,0 0.414,0.034 0.561,0.101 0.147,0.067 0.263,0.148 0.348,0.244 0.085,0.096 0.148,0.193 0.189,0.291 0.042,0.098 0.072,0.178 0.093,0.24 L 0.727,-1.178 C 0.712,-1.235 0.682,-1.316 0.638,-1.422 0.594,-1.528 0.525,-1.634 0.429,-1.74 0.334,-1.846 0.205,-1.939 0.043,-2.019 c -0.163,-0.08 -0.373,-0.12 -0.631,-0.12 -0.258,0 -0.497,0.041 -0.716,0.124 -0.219,0.082 -0.409,0.201 -0.568,0.356 -0.16,0.155 -0.284,0.34 -0.372,0.554 -0.088,0.215 -0.131,0.454 -0.131,0.717 0,0.228 0.045,0.449 0.135,0.663 0.09,0.214 0.214,0.404 0.371,0.57 0.158,0.165 0.342,0.298 0.554,0.399 0.211,0.101 0.438,0.151 0.681,0.151 0.144,0 0.299,-0.026 0.464,-0.077 C -0.005,1.266 0.148,1.182 0.29,1.066 0.432,0.949 0.551,0.796 0.646,0.605 0.741,0.413 0.789,0.176 0.789,-0.108 l -2.383,0"
               id="path105887"
               style="fill:#4a3a3e;fill-opacity:1;fill-rule:nonzero;stroke:none" />
          </g>
          <g
             transform="translate(339.1859,133.4978)"
             id="g105889">
            <path
               d="m 0,0 0,-0.109 0.45,0 -1.037,-2.433 -0.998,2.433 0.524,0 0,0.109 -1.577,0 0,-0.109 0.378,0 1.308,-3.224 0.205,0 1.358,3.224 0.27,0 L 0.881,0 0,0 z"
               id="path105891"
               style="fill:#4a3a3e;fill-opacity:1;fill-rule:nonzero;stroke:none" />
          </g>
          <g
             transform="translate(334.2234,134.9848)"
             id="g105893">
            <path
               d="m 0,0 c -0.208,0.067 -0.44,0.099 -0.665,0.112 l 0,-4.816 -0.522,0 0,-0.108 1.857,0 0,0.108 -0.67,0 L 0,0"
               id="path105895"
               style="fill:#4a3a3e;fill-opacity:1;fill-rule:nonzero;stroke:none" />
          </g>
        </g>
      </g>
    </g>
  </g>
</svg>
